public/svg/phone-black.svg

<svg width="24" height="24" viewBox="0 0 24 24" fill="none" xmlns="http://www.w3.org/2000/svg">
<g clip-path="url(#clip0_211_6067)">
<path fill-rule="evenodd" clip-rule="evenodd" d="M9.05474 14.947C12.1359 18.0276 14.9912 18.3649 15.8294 18.3961C16.8423 18.433 17.876 17.6062 18.3232 16.7593C17.61 15.9229 16.6812 15.2739 15.6643 14.5705C15.0641 15.1698 14.3244 16.2834 13.3396 15.8844C12.7794 15.6593 11.3963 15.0223 10.1879 13.8133C8.97861 12.6051 8.34233 11.2223 8.11555 10.6631C7.71648 9.67679 8.83356 8.93569 9.43378 8.3356C8.73019 7.30206 8.09231 6.34945 7.2573 5.67244C6.39825 6.12111 5.56644 7.14663 5.6041 8.17296C5.63536 9.011 5.97273 11.8656 9.05474 14.947ZM15.7701 19.9977C14.6161 19.9553 11.3458 19.5034 7.92082 16.0799C4.49663 12.6556 4.04547 9.38676 4.0022 8.23224C3.93809 6.47283 5.28597 4.76389 6.843 4.0965C7.0305 4.01555 7.23582 3.98473 7.43883 4.00707C7.64184 4.0294 7.83555 4.10412 8.00096 4.22389C9.28954 5.16368 10.1782 6.5874 10.9419 7.70266C11.1008 7.93456 11.1736 8.2147 11.1477 8.49459C11.1218 8.77448 10.9988 9.03651 10.8001 9.23533L9.71345 10.3225C9.96588 10.8794 10.4795 11.8392 11.321 12.6805C12.1624 13.5217 13.1224 14.0353 13.6802 14.2876L14.766 13.2012C14.9656 13.0021 15.2288 12.8794 15.5097 12.8543C15.7905 12.8293 16.0713 12.9036 16.303 13.0642C17.4409 13.8526 18.7776 14.7283 19.752 15.9757C19.8815 16.1423 19.9639 16.3406 19.9906 16.5499C20.0172 16.7592 19.9871 16.9718 19.9035 17.1655C19.2327 18.7302 17.5355 20.0626 15.7701 19.9977Z" fill="black"/>
</g>
<defs>
<clipPath id="clip0_211_6067">
<rect width="24" height="24" fill="white"/>
</clipPath>
</defs>
</svg>

<svg xmlns="http://www.w3.org/2000/svg" width="24" height="24" fill="none"><g clip-path="url(#a)"><path fill="#000" fill-rule="evenodd" d="M9.055 14.947c3.08 3.08 5.936 3.418 6.774 3.45 1.013.036 2.047-.79 2.494-1.638-.713-.836-1.642-1.485-2.659-2.189-.6.6-1.34 1.713-2.324 1.314-.56-.225-1.944-.862-3.152-2.07-1.21-1.209-1.846-2.592-2.072-3.15-.4-.987.718-1.728 1.318-2.328-.704-1.034-1.342-1.987-2.177-2.664-.859.45-1.69 1.475-1.653 2.501.031.838.369 3.693 3.45 6.774m6.715 5.05c-1.154-.042-4.424-.494-7.85-3.917-3.423-3.424-3.875-6.693-3.918-7.848-.064-1.76 1.284-3.468 2.841-4.135a1.18 1.18 0 0 1 1.158.127c1.289.94 2.177 2.363 2.94 3.479a1.205 1.205 0 0 1-.14 1.532l-1.088 1.088c.253.556.767 1.516 1.608 2.358.841.84 1.801 1.354 2.36 1.607l1.085-1.087a1.205 1.205 0 0 1 1.537-.137c1.138.789 2.475 1.664 3.449 2.912a1.18 1.18 0 0 1 .152 1.19c-.671 1.564-2.369 2.897-4.134 2.832" clip-rule="evenodd"/></g><defs><clipPath id="a"><path fill="#fff" d="M0 0h24v24H0z"/></clipPath></defs></svg>
